X:72
T:Huntsman Hornpipe
S:American Veteran Fifer, #72
C:Donated by Maj. J.N. Bogarte, Plainfield, N.J. Co.I.31st N.J.Vol.Inf.
M:2/4
L:1/16
Q:1/8=180
K:D 
%%MIDI program 72
%%MIDI transpose 8
%%MIDI ratio 3 1
AG | F2d2 d2cd | ecAc d2de | fdfd gfge | afdf ecAG |
F2d2 d2cd | ecAc d2de | fdgf edcB | A2A2A2 :|
|: fg | agfe dcBA | B2G2 G2ga | bagf gfed | c2A2 A2fg |
afaf bge2 | gfge afd2 | agbg fedc | d2d2d2 :|


